src/lib/packages/icons/src/assets/line/hourglass.svg

<svg width="24" height="24" viewBox="0 0 24 24" fill="none" xmlns="http://www.w3.org/2000/svg">
<path d="M19.75 6.26196V4.5C19.75 3.259 18.74 2.25 17.5 2.25H6.5C5.26 2.25 4.25 3.259 4.25 4.5V6.2561C4.25 8.4361 5.17004 8.95989 6.14404 9.51489L10.5071 12L6.14404 14.4851C5.17004 15.0401 4.25 15.5639 4.25 17.7439V19.5C4.25 20.741 5.26 21.75 6.5 21.75H17.5C18.74 21.75 19.75 20.741 19.75 19.5V17.738C19.75 15.565 18.835 15.0411 17.865 14.4851L13.53 12L17.865 9.51489C18.835 8.95889 19.75 8.43496 19.75 6.26196ZM17.1189 15.7871C17.9879 16.2851 18.25 16.435 18.25 17.739V19.501C18.25 19.915 17.913 20.251 17.5 20.251H6.5C6.087 20.251 5.75 19.915 5.75 19.501V17.7451C5.75 16.4371 6.01399 16.287 6.88599 15.79L12.022 12.865L17.1189 15.7871ZM17.1189 8.21289L12.021 11.136L6.88501 8.21094C6.01301 7.71394 5.74902 7.5641 5.74902 6.2561V4.5C5.74902 4.086 6.08602 3.75 6.49902 3.75H17.499C17.912 3.75 18.249 4.086 18.249 4.5V6.26196C18.25 7.56496 17.9879 7.71489 17.1189 8.21289Z" fill="currentColor"/>
</svg>

<svg xmlns="http://www.w3.org/2000/svg" width="24" height="24" fill="none"><path fill="currentColor" d="M19.75 6.262V4.5c0-1.241-1.01-2.25-2.25-2.25h-11A2.253 2.253 0 0 0 4.25 4.5v1.756c0 2.18.92 2.704 1.894 3.259L10.507 12l-4.363 2.485c-.974.555-1.894 1.079-1.894 3.259V19.5c0 1.241 1.01 2.25 2.25 2.25h11c1.24 0 2.25-1.009 2.25-2.25v-1.762c0-2.173-.915-2.697-1.885-3.253L13.53 12l4.335-2.485c.97-.556 1.885-1.08 1.885-3.253Zm-2.631 9.525c.869.498 1.131.648 1.131 1.952v1.762a.75.75 0 0 1-.75.75h-11a.75.75 0 0 1-.75-.75v-1.756c0-1.308.264-1.458 1.136-1.955l5.136-2.925 5.097 2.922Zm0-7.574-5.098 2.923-5.136-2.925c-.872-.497-1.136-.647-1.136-1.955V4.5a.75.75 0 0 1 .75-.75h11a.75.75 0 0 1 .75.75v1.762c.001 1.303-.261 1.453-1.13 1.95Z"/></svg>
